resources/svg/minor-insert-dynamic-source.svg

<svg xmlns="http://www.w3.org/2000/svg" viewBox="0 0 20 20" fill="currentColor"><path d="M10 9C13.866 9 17 7.65685 17 6C17 4.34315 13.866 3 10 3C6.13401 3 3 4.34315 3 6C3 7.65685 6.13401 9 10 9ZM13.2785 10.6513C12.2507 11.1753 11.394 11.9869 10.8144 12.9799C10.5472 12.9932 10.2755 13 10 13C6.13401 13 3 11.6569 3 10C3 9.64936 3.14036 9.31278 3.39831 9C4.35926 10.1652 6.95216 11 10 11C11.1846 11 12.3004 10.8739 13.2785 10.6513ZM10 16V17C6.13401 17 3 15.6569 3 14C3 13.6494 3.14036 13.3128 3.39831 13C4.35926 14.1652 6.95216 15 10 15L10.083 14.9998C10.0284 15.3251 10 15.6592 10 16ZM15 18C14.4477 18 14 17.5523 14 17V16H13C12.4477 16 12 15.5523 12 15C12 14.4477 12.4477 14 13 14H14V13C14 12.4477 14.4477 12 15 12C15.5523 12 16 12.4477 16 13V14H17C17.5523 14 18 14.4477 18 15C18 15.5523 17.5523 16 17 16H16V17C16 17.5523 15.5523 18 15 18Z" fill="#5C5F62"/></svg>

<svg xmlns="http://www.w3.org/2000/svg" viewBox="0 0 20 20" fill="currentColor"><path d="M10 9c3.866 0 7-1.343 7-3s-3.134-3-7-3-7 1.343-7 3 3.134 3 7 3Zm3.278 1.651a6.028 6.028 0 0 0-2.464 2.329c-.267.013-.539.02-.814.02-3.866 0-7-1.343-7-3 0-.35.14-.687.398-1 .961 1.165 3.554 2 6.602 2 1.185 0 2.3-.126 3.278-.349Zm-3.278 5.349v1c-3.866 0-7-1.343-7-3 0-.35.14-.687.398-1 .961 1.165 3.554 2 6.602 2h.083c-.055.325-.083.66-.083 1Zm5 2a1 1 0 0 1-1-1v-1h-1a1 1 0 1 1 0-2h1v-1a1 1 0 1 1 2 0v1h1a1 1 0 1 1 0 2h-1v1a1 1 0 0 1-1 1Z"/></svg>
